picto/soap-framed.svg

<svg class="color-immutable" width="30" height="30" viewBox="0 0 30 30" fill="none" xmlns="http://www.w3.org/2000/svg"><path d="M30.0021 0H0.0020752V30H30.0021V0Z" fill="#2D327D"/><path d="M25.5021 3C26.3271 3 27.0021 3.675 27.0021 4.5V25.5C27.0021 26.325 26.3271 27 25.5021 27H4.50208C3.67708 27 3.00208 26.325 3.00208 25.5V4.5C3.00208 3.675 3.67708 3 4.50208 3H25.5021ZM25.5021 2.625H4.50208C3.4682 2.625 2.62708 3.46613 2.62708 4.5V25.5C2.62708 26.5339 3.4682 27.375 4.50208 27.375H25.5021C26.536 27.375 27.3771 26.5339 27.3771 25.5V4.5C27.3771 3.46613 26.536 2.625 25.5021 2.625Z" fill="white"/><path d="M16.9304 7.78666C17.4284 7.78666 17.8322 7.38291 17.8322 6.88486C17.8322 6.38681 17.4284 5.98306 16.9304 5.98306C16.4323 5.98306 16.0286 6.38681 16.0286 6.88486C16.0286 7.38291 16.4323 7.78666 16.9304 7.78666Z" fill="white"/><path d="M14.9807 10.5617C15.4787 10.5617 15.8825 10.1579 15.8825 9.65986C15.8825 9.16181 15.4787 8.75806 14.9807 8.75806C14.4826 8.75806 14.0789 9.16181 14.0789 9.65986C14.0789 10.1579 14.4826 10.5617 14.9807 10.5617Z" fill="white"/><path d="M17.6843 13.7117C18.1823 13.7117 18.5861 13.3079 18.5861 12.8099C18.5861 12.3118 18.1823 11.9081 17.6843 11.9081C17.1862 11.9081 16.7825 12.3118 16.7825 12.8099C16.7825 13.3079 17.1862 13.7117 17.6843 13.7117Z" fill="white"/><path d="M8.5802 19.1013L7.03918 20.6424L10.3802 23.9834L11.9212 22.4423L8.5802 19.1013Z" fill="white"/><path d="M20.7066 17.0048L19.2644 18.4471C19.2644 18.4474 19.2644 18.4479 19.2644 18.4483C19.2668 18.4667 19.2686 18.4852 19.2701 18.504C19.2729 18.5352 19.2749 18.5666 19.2749 18.5986C19.2749 19.2613 18.7377 19.7986 18.0749 19.7986H14.6249V19.4236H18.0749C18.5306 19.4236 18.8999 19.0542 18.8999 18.5986C18.8999 18.144 18.5291 17.7753 18.0749 17.7736H15.7727C15.3089 17.7736 15.0135 17.6389 14.7365 17.4985C14.7205 17.4904 14.7045 17.4823 14.6886 17.4741L14.6293 17.4439C14.5994 17.4278 14.5686 17.4138 14.5384 17.3986C14.004 17.1293 13.4126 17.0786 12.8152 17.0786C11.7822 17.0786 11.0179 17.3905 10.2959 18.1231L9.20911 19.205L11.8103 21.8062L12.3145 21.2999L18.0785 21.2948C18.5135 21.2948 18.905 21.1304 19.2046 20.8605L19.8455 20.2299L22.7497 17.3257L22.847 17.2285C23.094 16.9055 21.6458 16.0657 20.7066 17.0048Z" fill="white"/><path d="M12.8152 16.7048C13.3972 16.7048 14.0774 16.7475 14.7074 17.0655C14.7172 17.07 14.7269 17.0745 14.7367 17.0798C14.7584 17.0903 14.7809 17.1015 14.8027 17.1128L14.8589 17.142L14.9062 17.1653C15.1679 17.298 15.3982 17.4 15.7724 17.4H18.0764C18.3134 17.4008 18.5347 17.4705 18.7207 17.5905C18.8542 17.4473 18.9532 17.2688 19.0012 17.0648C19.1489 16.4378 18.7597 15.8093 18.1327 15.6615C17.8807 15.6023 17.6294 15.63 17.4082 15.7245C17.3159 15.2213 16.8757 14.8388 16.3447 14.8388C16.3072 14.8388 16.2689 14.841 16.2322 14.8448C16.0934 14.3595 15.7042 13.9613 15.1777 13.8368C14.4029 13.6545 13.6267 14.1345 13.4437 14.9093C13.4317 14.9625 13.4234 15.0158 13.4174 15.0683C13.3477 15.0563 13.2764 15.0488 13.2037 15.0488C12.5294 15.0488 11.9827 15.5955 11.9827 16.2698C11.9827 16.4445 12.0194 16.6103 12.0862 16.7603C12.3164 16.7228 12.5587 16.7048 12.8152 16.7048Z" fill="white"/></svg>

<svg class="color-immutable" width="30" height="30" viewBox="0 0 30 30" fill="none" xmlns="http://www.w3.org/2000/svg"><g clip-path="url(#a)"><path d="M30.002 0h-30v30h30V0Z" fill="#2D327D"/><path d="M25.502 3c.825 0 1.5.675 1.5 1.5v21c0 .825-.675 1.5-1.5 1.5h-21c-.825 0-1.5-.675-1.5-1.5v-21c0-.825.675-1.5 1.5-1.5h21Zm0-.375h-21A1.877 1.877 0 0 0 2.627 4.5v21c0 1.034.841 1.875 1.875 1.875h21a1.877 1.877 0 0 0 1.875-1.875v-21a1.877 1.877 0 0 0-1.875-1.875Z" fill="#fff"/><path d="M16.93 7.787a.902.902 0 1 0 0-1.804.902.902 0 0 0 0 1.804ZM14.98 10.562a.902.902 0 1 0 0-1.804.902.902 0 0 0 0 1.804ZM17.684 13.712a.902.902 0 1 0 0-1.804.902.902 0 0 0 0 1.804ZM8.58 19.101l-1.54 1.541 3.34 3.341 1.541-1.54-3.34-3.342ZM20.707 17.005l-1.443 1.442v.001a1.117 1.117 0 0 1 .01.15 1.2 1.2 0 0 1-1.2 1.2h-3.45v-.374h3.45a.825.825 0 1 0 0-1.65h-2.301c-.464 0-.76-.135-1.037-.276a7.162 7.162 0 0 1-.047-.024l-.06-.03-.09-.045c-.535-.27-1.126-.32-1.724-.32-1.033 0-1.797.311-2.52 1.044L9.21 19.205l2.601 2.601.505-.506 5.763-.005c.436 0 .827-.165 1.127-.435l.64-.63 2.905-2.904.097-.098c.247-.323-1.201-1.162-2.14-.223Z" fill="#fff"/><path d="M12.815 16.705c.582 0 1.262.043 1.892.36l.03.015.066.033.056.029.047.023c.262.133.492.235.866.235h2.304c.237 0 .459.07.645.19a1.167 1.167 0 0 0-1.313-1.866 1.082 1.082 0 0 0-1.176-.88 1.44 1.44 0 0 0-2.815.224 1.221 1.221 0 0 0-1.331 1.692c.23-.037.473-.055.73-.055Z" fill="#fff"/></g><defs><clipPath id="a"><path fill="#fff" d="M0 0h30v30H0z"/></clipPath></defs></svg>
